src/assets/img/nftDashboard/share_network.svg

<svg fill="none" height="16" viewBox="0 0 16 16" width="16" xmlns="http://www.w3.org/2000/svg"><g stroke="#fff" stroke-linecap="round" stroke-linejoin="round"><path d="m4 10c1.10457 0 2-.89543 2-2s-.89543-2-2-2-2 .89543-2 2 .89543 2 2 2z" stroke-width="1.7"/><path d="m11 14.5c1.1046 0 2-.8954 2-2s-.8954-2-2-2c-1.10457 0-2 .8954-2 2s.89543 2 2 2z" stroke-width="1.7"/><g stroke-width="1.6"><path d="m11 5.5c1.1046 0 2-.89543 2-2s-.8954-2-2-2c-1.10457 0-2 .89543-2 2s.89543 2 2 2z"/><path d="m9.31782 4.58142-3.63569 2.33723"/><path d="m5.68213 9.0813 3.63569 2.3372"/></g></g></svg>

<svg width="16" height="16" viewBox="0 0 16 16" fill="none" xmlns="http://www.w3.org/2000/svg">
<path d="M4 10C5.10457 10 6 9.10457 6 8C6 6.89543 5.10457 6 4 6C2.89543 6 2 6.89543 2 8C2 9.10457 2.89543 10 4 10Z" stroke="white" stroke-width="1.7" stroke-linecap="round" stroke-linejoin="round"/>
<path d="M11 14.5C12.1046 14.5 13 13.6046 13 12.5C13 11.3954 12.1046 10.5 11 10.5C9.89543 10.5 9 11.3954 9 12.5C9 13.6046 9.89543 14.5 11 14.5Z" stroke="white" stroke-width="1.7" stroke-linecap="round" stroke-linejoin="round"/>
<path d="M11 5.5C12.1046 5.5 13 4.60457 13 3.5C13 2.39543 12.1046 1.5 11 1.5C9.89543 1.5 9 2.39543 9 3.5C9 4.60457 9.89543 5.5 11 5.5Z" stroke="white" stroke-width="1.6" stroke-linecap="round" stroke-linejoin="round"/>
<path d="M9.31782 4.58142L5.68213 6.91865" stroke="white" stroke-width="1.6" stroke-linecap="round" stroke-linejoin="round"/>
<path d="M5.68213 9.0813L9.31782 11.4185" stroke="white" stroke-width="1.6" stroke-linecap="round" stroke-linejoin="round"/>
</svg>
